X: 5
T:Ahavat Hadassa
C:Yemenite Tune
S:Songs and Folk Dances arranged by Haim Kirsch. Book 4 (c) 1961 NEGEN
S:chords by seymour (with the help of abcmus)
D: Back from Israel (Hadarim LP-3)
O:Israel
F: http://www.youtube.com/watch?v=vj4cO6jCH2k
Q:1/4=72
L:1/8
M:2/4
K:F
|: "F"CF FF    | G/A/F/G/ A>A    | c B/A/ "C"GB| "F"A>G F2       :|\
   "Bb"B>B B>B | "F"A/G/F/G/ A>F |
   FA GF       | c4              | "Bb"B>B B>B | "F"A/G/F/G/ A>F | FA "C"GE| "F"F4|



